lib/brands/icons/android.svg

<svg xmlns="http://www.w3.org/2000/svg" fill="none" aria-hidden="true" viewBox="0 0 48 48"><g id="android-Icon"><path id="Vector" fill="#78C257" d="M33.2068 29.8787C32.8772 29.8787 32.5549 29.7809 32.2809 29.5978C32.0068 29.4146 31.7932 29.1544 31.667 28.8498C31.5409 28.5453 31.5079 28.2102 31.5722 27.8869C31.6365 27.5635 31.7952 27.2666 32.0283 27.0335C32.2614 26.8004 32.5584 26.6417 32.8817 26.5774C33.205 26.5131 33.5401 26.5461 33.8446 26.6722C34.1492 26.7983 34.4095 27.012 34.5926 27.2861C34.7757 27.5601 34.8735 27.8824 34.8735 28.212C34.8735 28.654 34.6979 29.078 34.3853 29.3905C34.0728 29.7031 33.6488 29.8787 33.2068 29.8787ZM14.7971 29.8787C14.4675 29.8787 14.1452 29.7809 13.8711 29.5978C13.5971 29.4146 13.3834 29.1544 13.2573 28.8498C13.1311 28.5453 13.0981 28.2102 13.1624 27.8869C13.2268 27.5635 13.3855 27.2666 13.6186 27.0335C13.8517 26.8004 14.1486 26.6417 14.4719 26.5774C14.7952 26.5131 15.1304 26.5461 15.4349 26.6722C15.7394 26.7983 15.9997 27.012 16.1829 27.2861C16.366 27.5601 16.4638 27.8824 16.4638 28.212C16.4638 28.654 16.2882 29.078 15.9756 29.3905C15.663 29.7031 15.2391 29.8787 14.7971 29.8787ZM33.804 19.8453L37.1332 14.0814C37.1862 14.0025 37.2224 13.9135 37.2396 13.82C37.2567 13.7265 37.2545 13.6305 37.2331 13.5379C37.2117 13.4453 37.1714 13.3581 37.1149 13.2816C37.0584 13.2052 36.9868 13.1412 36.9045 13.0935C36.8223 13.0459 36.7311 13.0157 36.6367 13.0047C36.5422 12.9937 36.4466 13.0023 36.3556 13.0298C36.2646 13.0573 36.1802 13.1032 36.1077 13.1646C36.0351 13.2261 35.976 13.3018 35.9339 13.387V13.387L32.5631 19.2252C29.8705 18.0176 26.9529 17.3933 24.002 17.3933C21.051 17.3933 18.1334 18.0176 15.4408 19.2252L12.07 13.387C12.0279 13.3018 11.9688 13.2261 11.8962 13.1646C11.8237 13.1032 11.7393 13.0573 11.6483 13.0298C11.5573 13.0023 11.4617 12.9937 11.3672 13.0047C11.2728 13.0157 11.1816 13.0459 11.0994 13.0935C11.0171 13.1412 10.9455 13.2052 10.889 13.2816C10.8325 13.3581 10.7922 13.4453 10.7708 13.5379C10.7494 13.6305 10.7472 13.7265 10.7644 13.82C10.7815 13.9135 10.8177 14.0025 10.8707 14.0814L14.1999 19.8453C8.4832 22.9544 4.57418 28.7412 4.00195 35.578H44.002C43.4297 28.7412 39.52 22.9544 33.804 19.8453"/></g></svg>

<svg xmlns="http://www.w3.org/2000/svg" fill="none" aria-hidden="true" viewBox="0 0 48 48"><path fill="#78C257" d="M33.207 29.879a1.667 1.667 0 1 1 0-3.334 1.667 1.667 0 0 1 0 3.334Zm-18.41 0a1.667 1.667 0 1 1 0-3.335 1.667 1.667 0 0 1 0 3.335Zm19.007-10.034 3.33-5.764a.694.694 0 1 0-1.2-.694l-3.37 5.838a20.92 20.92 0 0 0-17.123 0l-3.371-5.838a.695.695 0 1 0-1.2.694l3.33 5.764c-5.717 3.11-9.626 8.896-10.198 15.733h40c-.572-6.837-4.482-12.624-10.198-15.733"/></svg>
